X:1
T:Streets of Laredo
M:3/4
L:1/4
K:C
 z2 G| G- F E| F G F| E D C| B, G,3/2 z/2| C C C| D E F| E D C| D3/2 z/2 G|\
 G F E| F G F| E D C| B, G,3/2 z/2| C C C| D E F| E B, D| C2 z|

